fs/square_multiple_16_filled.svg

<svg viewBox="0 0 16 16" fill="none" xmlns="http://www.w3.org/2000/svg" height="1em" width="1em">
  <path d="M5.08496 4H9.99961C11.1042 4 11.9996 4.89543 11.9996 6V10.9146C12.5822 10.7087 12.9996 10.1531 12.9996 9.5V6C12.9996 4.34315 11.6565 3 9.99961 3H6.49961C5.8465 3 5.29088 3.4174 5.08496 4ZM4.5 5C3.67157 5 3 5.67157 3 6.5V11.5C3 12.3284 3.67157 13 4.5 13H9.5C10.3284 13 11 12.3284 11 11.5V6.5C11 5.67157 10.3284 5 9.5 5H4.5Z" fill="#212121"/>
</svg>

<svg viewBox="0 0 16 16" fill="none" xmlns="http://www.w3.org/2000/svg" height="1em" width="1em">
  <path d="M5.085 4H10a2 2 0 0 1 2 2v4.915A1.5 1.5 0 0 0 13 9.5V6a3 3 0 0 0-3-3H6.5a1.5 1.5 0 0 0-1.415 1ZM4.5 5A1.5 1.5 0 0 0 3 6.5v5A1.5 1.5 0 0 0 4.5 13h5a1.5 1.5 0 0 0 1.5-1.5v-5A1.5 1.5 0 0 0 9.5 5h-5Z" fill="#212121"/>
</svg>
